X: 155
T:Julie's Jig
% Nottingham Music Database
S:Trad, arr Phil Rowe
M:6/8
K:G
d2c |"G"BGD G2B|d3 -d2c|"G"BGD G2B|d3 -d2c|B2d d^cd|
"G"edc BAG|"D"Add d^cd|Add d2c|"G"BGD G2B|"G7"d3 -dBG|
"C"c2B c2e|"Cd"g3 -gfe|"G"d2d d^cd|edc BAG|"D"A2G G2F|"G"G3 ||
g2f |"C"e3 c3|e2g f2e|"G"d2e d2G|B3 -B2c|"G"d2d d^cd|"G"edc BAG|
"D"Add d^cd|Add d2c|"G"BGD G2B|"G7"d3 -dBG|"C"c2B c2e|
"Cd"g3 -gfe|"G"d2d d^cd|edc BAG|"D"A2G G2F|"G"G3 ||


